resources/svg/youtube-header.svg

<svg class="w-[20px] md:w-[26px]" width="26" height="26" viewBox="0 0 26 26" fill="none" xmlns="http://www.w3.org/2000/svg">
    <rect width="26" height="26" rx="4" fill="#F20000"/>
    <g clip-path="url(#clip0_877_4822)">
    <path d="M19.1951 9.87311C18.9351 9.06574 18.0747 8.5885 17.2759 8.47732C14.4285 8.17455 11.557 8.17455 8.70957 8.47732C7.9176 8.5885 7.0572 9.07258 6.7972 9.87311C6.39182 11.9385 6.39182 14.0631 6.7972 16.1285C7.06404 16.9342 7.92444 17.4131 8.72325 17.5243C11.5708 17.8253 14.4421 17.8253 17.2896 17.5243C18.0815 17.4131 18.9419 16.9273 19.2019 16.1285C19.6051 14.0626 19.6027 11.9381 19.1951 9.87311ZM11.4447 15.4905V10.5094L15.5004 13C14.1337 13.8398 12.8063 14.6575 11.4447 15.4905Z" fill="white"/>
    <g clip-path="url(#clip1_877_4822)">
    <path d="M19.1951 9.87311C18.9351 9.06574 18.0747 8.5885 17.2759 8.47732C14.4285 8.17455 11.557 8.17455 8.70957 8.47732C7.9176 8.5885 7.0572 9.07258 6.7972 9.87311C6.39182 11.9385 6.39182 14.0631 6.7972 16.1285C7.06404 16.9342 7.92444 17.4131 8.72325 17.5243C11.5708 17.8253 14.4421 17.8253 17.2896 17.5243C18.0815 17.4131 18.9419 16.9273 19.2019 16.1285C19.6051 14.0626 19.6027 11.9381 19.1951 9.87311ZM11.4447 15.4905V10.5094L15.5004 13C14.1337 13.8398 12.8063 14.6575 11.4447 15.4905Z" fill="white"/>
    </g>
    </g>
    <defs>
    <clipPath id="clip0_877_4822">
    <rect width="26" height="26" fill="white"/>
    </clipPath>
    <clipPath id="clip1_877_4822">
    <rect width="26" height="26" fill="white"/>
    </clipPath>
    </defs>
</svg>

<svg class="w-[20px] md:w-[26px]" width="26" height="26" fill="none" xmlns="http://www.w3.org/2000/svg"><rect width="26" height="26" rx="4" fill="#F20000"/><g clip-path="url(#a)"><path d="M19.2 9.9c-.3-.8-1.1-1.3-2-1.4-2.8-.3-5.6-.3-8.5 0-.8 0-1.6.6-1.9 1.4-.4 2-.4 4.2 0 6.2.3.8 1.1 1.3 2 1.4 2.8.3 5.6.3 8.5 0 .8 0 1.6-.6 1.9-1.4.4-2 .4-4.2 0-6.2Zm-7.8 5.6v-5l4.1 2.5-4 2.5Z" fill="#fff"/><g clip-path="url(#b)"><path d="M19.2 9.9c-.3-.8-1.1-1.3-2-1.4-2.8-.3-5.6-.3-8.5 0-.8 0-1.6.6-1.9 1.4-.4 2-.4 4.2 0 6.2.3.8 1.1 1.3 2 1.4 2.8.3 5.6.3 8.5 0 .8 0 1.6-.6 1.9-1.4.4-2 .4-4.2 0-6.2Zm-7.8 5.6v-5l4.1 2.5-4 2.5Z" fill="#fff"/></g></g><defs><clipPath id="a"><path fill="#fff" d="M0 0h26v26H0z"/></clipPath><clipPath id="b"><path fill="#fff" d="M0 0h26v26H0z"/></clipPath></defs></svg>
